dist/svgs/dashboard-full.svg

<!-- Generated by IcoMoon.io -->
<svg version="1.1" xmlns="http://www.w3.org/2000/svg" width="24" height="24" viewBox="0 0 24 24">
<title>dashboard-full</title>
<path d="M12 0c-6.617 0-12 5.383-12 12s5.383 12 12 12 12-5.383 12-12-5.383-12-12-12zM11 3h2v3h-2v-3zM6 13h-3v-2h3v2zM12 15c-1.654 0-3-1.346-3-3 0-0.462 0.113-0.894 0.3-1.285l-4.391-4.392 1.414-1.414 4.391 4.392c0.392-0.187 0.824-0.301 1.286-0.301 1.654 0 3 1.346 3 3s-1.346 3-3 3zM15.536 7.050l2.121-2.121 1.414 1.414-2.121 2.121-1.414-1.414zM18 13v-2h3v2h-3z"></path>
</svg>

<svg xmlns="http://www.w3.org/2000/svg" width="24" height="24" viewBox="0 0 24 24"><title>dashboard-full</title><path d="M12 0C5.383 0 0 5.383 0 12s5.383 12 12 12 12-5.383 12-12S18.617 0 12 0zm-1 3h2v3h-2V3zM6 13H3v-2h3v2zm6 2c-1.654 0-3-1.346-3-3 0-.462.113-.894.3-1.285L4.909 6.323l1.414-1.414 4.391 4.392A2.973 2.973 0 0 1 12 9c1.654 0 3 1.346 3 3s-1.346 3-3 3zm3.536-7.95l2.121-2.121 1.414 1.414-2.121 2.121-1.414-1.414zM18 13v-2h3v2h-3z"/></svg>
